public/LinkedIn.svg

<svg width="24" height="24" viewBox="0 0 24 24" fill="none" xmlns="http://www.w3.org/2000/svg">
<g id="Main/RedesSociales">
<path id="Vector" d="M19 3C19.5304 3 20.0391 3.21071 20.4142 3.58579C20.7893 3.96086 21 4.46957 21 5V19C21 19.5304 20.7893 20.0391 20.4142 20.4142C20.0391 20.7893 19.5304 21 19 21H5C4.46957 21 3.96086 20.7893 3.58579 20.4142C3.21071 20.0391 3 19.5304 3 19V5C3 4.46957 3.21071 3.96086 3.58579 3.58579C3.96086 3.21071 4.46957 3 5 3H19ZM18.5 18.5V13.2C18.5 12.3354 18.1565 11.5062 17.5452 10.8948C16.9338 10.2835 16.1046 9.94 15.24 9.94C14.39 9.94 13.4 10.46 12.92 11.24V10.13H10.13V18.5H12.92V13.57C12.92 12.8 13.54 12.17 14.31 12.17C14.6813 12.17 15.0374 12.3175 15.2999 12.5801C15.5625 12.8426 15.71 13.1987 15.71 13.57V18.5H18.5ZM6.88 8.56C7.32556 8.56 7.75288 8.383 8.06794 8.06794C8.383 7.75288 8.56 7.32556 8.56 6.88C8.56 5.95 7.81 5.19 6.88 5.19C6.43178 5.19 6.00193 5.36805 5.68499 5.68499C5.36805 6.00193 5.19 6.43178 5.19 6.88C5.19 7.81 5.95 8.56 6.88 8.56ZM8.27 18.5V10.13H5.5V18.5H8.27Z" fill="white"/>
</g>
</svg>

<svg xmlns="http://www.w3.org/2000/svg" width="24" height="24" viewBox="0 0 24 24"><path fill="#ffffff" d="M19 3a2 2 0 0 1 2 2v14a2 2 0 0 1-2 2H5a2 2 0 0 1-2-2V5a2 2 0 0 1 2-2zm-.5 15.5v-5.3a3.26 3.26 0 0 0-3.26-3.26c-.85 0-1.84.52-2.32 1.3v-1.11h-2.79v8.37h2.79v-4.93c0-.77.62-1.4 1.39-1.4a1.4 1.4 0 0 1 1.4 1.4v4.93zM6.88 8.56a1.68 1.68 0 0 0 1.68-1.68c0-.93-.75-1.69-1.68-1.69a1.69 1.69 0 0 0-1.69 1.69c0 .93.76 1.68 1.69 1.68m1.39 9.94v-8.37H5.5v8.37z"/></svg>
